!!!!SEGMENT: pl-cz--ii-87--003-005_grim-jozef--msza-druga-offertorium.krn
!!!cenid: 18xx:1184
!!!COM: Grim, Józef
!!!COM-rismID: pe30003883
!!!CDT: ~1800-~1899
!!!CNT:
!!!OPR: Msza druga
!!!OTL: Offertorium
!!!OMV: 005
!!!PDT: 1888
!!!AGN: Sacred; Mass
!!!SMS-siglum: PL-CZ
!!!SMS-shelfmark: II-87
!!!SMS-shelfwork: 003-005 M
!!!SMS-variant:
!!!SMS-altvar:
!!!NIFC-rismSourceID: 300033223
!!!NIFC-rismChildID: 300033226
!!!NIFC-islandoraID: pl-cz:33881
!!!URL-pdf-islandora: https://repozytorium.nifc.pl/islandora/object/pl-cz%3A33881/datastream/PDF/view
!!!URL-scan: https://polish.musicsources.pl/pl/lokalizacje/galeria/rekopisy/6814/1 @EN{Scan on Polish Music Sources Website} @PL{Skany w portalu Dziedzictwo Muzyki Polskiej w otwartym dostępie}
!!!ONB-nifc: UWAGA: części Mszy: Kirie, Gloria, Graduale, Credo, Offertorium, Sanctus, Po podniesieniu, Agnus
!!!AIN: 1 organ 1 vox
!!!key: F
!!!OMD: Andante.
**kern	**kern	**kern	**text	**text
*part2	*part2	*part1	*part1	*part1
*staff3	*staff2	*staff1	*staff1	*staff1
*I"Organ	*I"Organ	*I"Głos	*	*
*Iorgan	*Iorgan	*Ivox	*	*
*ICklav	*ICklav	*ICvox	*	*
*IGacmp	*IGacmp	*IGsolo	*	*
*>[A,B,B,C]	*>[A,B,B,C]	*>[A,B,B,C]	*>[A,B,B,C]	*>[A,B,B,C]
*>A	*>A	*>A	*>A	*>A
*clefF4	*clefG2	*clefG2	*	*
*k[b-]	*k[b-]	*k[b-]	*	*
*F:	*F:	*F:	*	*
*M3/4	*M3/4	*M3/4	*	*
=1	=1	=1	=1	=1
2.r	8c/L	2.r	.	.
.	8e/	.	.	.
.	8f/	.	.	.
.	8g/	.	.	.
.	8a/	.	.	.
.	8b-/J	.	.	.
=2!|:	=2!|:	=2!|:	=2!|:	=2!|:
*>B	*>B	*>B	*>B	*>B
2.r	[>2.cc/	2.r	.	.
=3	=3	=3	=3	=3
*^	*^	*	*	*
!	!LO:N:vis=2	!	!	!	!	!
2.rEE	2.B-/	2.cc/_	(2.e\	2.r	.	.
=4	=4	=4	=4	=4	=4	=4
!	!LO:N:vis=2	!LO:N:vis=2	!LO:N:vis=2	!	!	!
2.rEE	2.A/	2.cc/_	[2.f\)	2.r	.	.
=5	=5	=5	=5	=5	=5	=5
2.G/	4r	2.cc/;]	2f\]	2.r	.	.
.	2C;\	.	.	.	.	.
.	.	.	4f\	.	.	.
*v	*v	*	*	*	*	*
!!LO:LB:g=original
=6	=6	=6	=6	=6	=6
*	*	*	*^	*	*
[2.F [2.FF/	4cc 4a/	[2.c\	4cc/	4a\	Niech	Gdzie
.	4a 4f/	.	4a/	4f\	z rę-	chle-
.	4b- 4g/	.	4b-/	4g\	-ki	-ba
=7	=7	=7	=7	=7	=7	=7
!LO:N:vis=2	!	!	!	!	!	!
2.F_ 2.FF/_	8ddL 8b-/	2.c\]	8dd/L	8b-\L	two-	wi-
.	8ccJ 8a/	.	8cc/J	8a\J	.	.
!	!	!	!	!LO:SIC:v:l:s=-na:verse 2	!	!
.	4g 4e/	.	4g/	4e\	-jej	-no
.	4a 4f/	.	4a/	4f\	ka-	i-
=8	=8	=8	=8	=8	=8	=8
*	*^	*^	*	*	*	*
*	*	*2\right	*	*	*	*	*	*
!LO:N:vis=2	!LO:N:vis=2	!	!	!	!LO:N:vis=2	!	!	!
2.F] 2.FF/]	4b-/	2b-\	2d\	4d\	2.b-/	4d\	-pła-	-sto-
*	*	*2\left	*	*	*	*	*	*
.	4g/	.	.	2ryy	.	4g\	.	.
.	4e/	4ryy	4c\	.	.	4e\	.	.
*	*v	*v	*	*	*	*	*	*
*	*	*v	*v	*	*	*	*
=9	=9	=9	=9	=9	=9	=9
4F 4FF/	2a 2f/	2c\	2a/	2f\	-nie	-ta
4FF/	.	.	.	.	.	.
4r	8aL 8f/	4reyy	4r	4ryy	.	.
.	8b-J 8g/	.	.	.	.	.
=10	=10	=10	=10	=10	=10	=10
2F\	4cc/	2a\	4cc/	4a\	Bóg	Bóg
.	4dd/	.	4ff/	4a\	przyj-	znij-
4A\	4ee/	4cc 4f\	4ee/	4cc\	-mie	-dzie
=11	=11	=11	=11	=11	=11	=11
*	*	*^	*	*	*	*
2B-\	4ee 4cc/	2.f\	4rBByy	(4ee/	(4cc\	Swie-	znij-
.	4dd 4b-/	.	4rDyy	4dd/)	4b-\)	.	.
!	!	!	!	!LO:SIC:v:l:s=-tą:verse 1	!	!	!
4F\	8cc/L	.	4a\	8cc/L	4a\	-ta	-dzie
.	8dd/J	.	.	8dd/J	.	.	.
=12	=12	=12	=12	=12	=12	=12	=12
2C\	4cc/	2g/	2c\	4cc/	4g\	Swie-	ku
.	4b-/	.	.	4b-/	4g\	-tą	dziat-
4F\	4a 4f/	4rcyy	4rFyy	4a/	4f\	o-	-wie
*	*	*v	*v	*	*	*	*
*	*	*	*v	*v	*	*
!!LO:PB:g=original
=13	=13	=13	=13	=13	=13
2C;</	4a 4f/	8c\L	4a/	-fia-	swo-
.	.	8Bn\J	.	.	.
.	4g/	4e 4cn\	4g;/	-rę	-jej
4r	16c/LL	4rAyy	4r	.	.
.	16d/	.	.	.	.
.	16e/	.	.	.	.
.	16f/JJ	.	.	.	.
=14	=14	=14	=14	=14	=14
*	*	*	*^	*	*
4C/	2g/	8e\L	4g/	8e\L	a	Na-
.	.	8e-X\J	.	8e-X\J	.	.
4BB-/	.	2d\	4g/	4d\	sło-	-kar-
4AA/	4a 4f#X/	.	4a 4f#X/	4rcyy	-wo	-mi
=15	=15	=15	=15	=15	=15	=15
4GG/	8cc/L	4g\	8cc/L	4g\	cia-	cia-
.	8b-/J	.	8b-/J	.	.	.
2BB-/	4fn 4d/	4rcyy	4fn/	4d\	-łem	-łem
.	4g/	8e\L	4g/	8e\L	się	ży-
.	.	8d\J	.	8d\J	.	.
=16	=16	=16	=16	=16	=16	=16
!	!LO:N:vis=2	!	!LO:N:vis=2	!	!	!
4AA/	2.a/	4c#X\	2.a/	4c#X\	sta-	-wo-
4BBn/	.	4d\	.	4d\	.	.
4C#X/	.	4e\	.	4e\	.	.
=17	=17	=17	=17	=17	=17	=17
2D\	2f/	4A\	2f/	(4d\	-nie	-ta
.	.	4B-\	.	4f\)	.	.
4D-X\	4g/	4Bn\	4g/	4f\	i	krwią
=18	=18	=18	=18	=18	=18	=18
!	!	!LO:N:vis=2	!	!	!	!
[<2.C\	4a 4f/	N[<2.c\	(4a/	(4f\	cud	swo-
.	4b- 4g/	.	4b-/)	4g\)	.	.
.	4bn 4g#X/	.	4bn/	4g#X\	o-	-jej
!!LO:LB:g=original
=19	=19	=19	=19	=19	=19	=19
!	!	!LO:N:vis=4	!	!	!	!
2cN] 2C\]	8cc/L	4.a\	8cc/L	4a\	-ba-	ła-
.	8ff/	.	8ff/J	.	.	.
.	8cc/	.	8cc/L	8a\L	-czym	-ski
.	8a/J	8f\	8a/J	8f\J	.	.
4D\	8f/L	4B-\	8f/L	4f\	przez	na-
.	8g/J	.	8g/J	.	.	.
=20	=20	=20	=20	=20	=20	=20
2C/	2a 2f/	4c\	2a/	2f\	wia-	-po-
.	.	4B-\	.	.	.	.
4CC/	4g/	4e 4B-\	4g/	4e\	-rę	-i
*	*	*	*v	*v	*	*
=21	=21	=21	=21	=21	=21
4FF/	4f/	4c 4A\	2f/	.	.
4F\	8f/L	2reyy	.	.	.
.	8g/	.	.	.	.
4r	8a/	.	4r	.	.
.	8b-/J	.	.	.	.
=22:|!	=22:|!	=22:|!	=22:|!	=22:|!	=22:|!
*>C	*>C	*>C	*.C	*>C	*>C
4C\	2.cc/	4e\	2.r	.	.
4D\	.	4f\	.	.	.
4E\	.	4g\	.	.	.
=23	=23	=23	=23	=23	=23
2F\	8cc/L	4.a\	2.r	.	.
.	8ff/	.	.	.	.
.	8cc/	.	.	.	.
.	8a/J	8f\	.	.	.
4G\	8f/L	4B-\	.	.	.
.	8g/J	.	.	.	.
=24	=24	=24	=24	=24	=24
2C/	2a 2f/	4c\	2.r	.	.
.	.	4B-\	.	.	.
4CC/	4g 4e/	4B-X\	.	.	.
*	*v	*v	*	*	*
=25	=25	=25	=25	=25
2FF/	2f 2c 2A/	2.r	.	.
4r	4r	.	.	.
==	==	==	==	==
*-	*-	*-	*-	*-
!!!system-decoration: <s1>(s2,s3)
!!!RDF**kern: > = above
!!!RDF**kern: < = below
!!!RDF**kern: N = linked
!!!ENC: Marcin Jachim
!!!END: 2020-11-07
!!!ENC: Marta Lawrence
!!!END: 2021-11-14
!!!YEC: Copyright 2022 Narodowy Instytut Fryderyka Chopina (https://polishscores.org)
!!!YEM: License CC-BY-4.0 (https://creativecommons.org/licenses/by/4.0)
